contributed-vectors/google_recorder.svg

<svg xmlns="http://www.w3.org/2000/svg" xml:space="preserve" style="fill-rule:evenodd;clip-rule:evenodd;stroke-linejoin:round;stroke-miterlimit:2" viewBox="0 0 192 192"><circle cx="88" cy="88" r="88" style="fill:#ff837d" transform="translate(8 8)"/><g transform="matrix(.86716 0 0 .86716 12.708 12.7)"><path d="M55.807 87.777c0-2.479-2.066-4.492-4.611-4.492-2.544 0-4.61 2.013-4.61 4.492v15.139c0 2.48 2.066 4.493 4.61 4.493 2.545 0 4.611-2.013 4.611-4.493V87.777Z" style="fill:#fff" transform="matrix(1 0 0 1.02636 -.255 -2.262)"/><path d="M55.807 85.253c0-1.086-2.066-1.968-4.611-1.968-2.544 0-4.61.882-4.61 1.968v20.187c0 1.087 2.066 1.969 4.61 1.969 2.545 0 4.611-.882 4.611-1.969V85.253Z" style="fill:#fff" transform="matrix(1 0 0 2.34219 14.672 -127.723)"/><path d="M55.807 84.345c0-.585-2.066-1.06-4.611-1.06-2.544 0-4.61.475-4.61 1.06v22.003c0 .586 2.066 1.061 4.61 1.061 2.545 0 4.611-.475 4.611-1.061V84.345Z" style="fill:#fff" transform="matrix(1 0 0 4.348 29.598 -318.97)"/><path d="M55.807 85.253c0-1.086-2.066-1.968-4.611-1.968-2.544 0-4.61.882-4.61 1.968v20.187c0 1.087 2.066 1.969 4.61 1.969 2.545 0 4.611-.882 4.611-1.969V85.253Z" style="fill:#fff" transform="matrix(1 0 0 2.34219 44.524 -127.723)"/><path d="M55.807 87.777c0-2.479-2.066-4.492-4.611-4.492-2.544 0-4.61 2.013-4.61 4.492v15.139c0 2.48 2.066 4.493 4.61 4.493 2.545 0 4.611-2.013 4.611-4.493V87.777Z" style="fill:#fff" transform="matrix(1 0 0 1.02636 59.357 -2.262)"/><path d="M55.807 85.253c0-1.086-2.066-1.968-4.611-1.968-2.544 0-4.61.882-4.61 1.968v20.187c0 1.087 2.066 1.969 4.61 1.969 2.545 0 4.611-.882 4.611-1.969V85.253Z" style="fill:#fff" transform="matrix(1 0 0 2.34219 74.19 -127.723)"/><path d="M55.807 87.777c0-2.479-2.066-4.492-4.611-4.492-2.544 0-4.61 2.013-4.61 4.492v15.139c0 2.48 2.066 4.493 4.61 4.493 2.545 0 4.611-2.013 4.611-4.493V87.777Z" style="fill:#fff" transform="matrix(1 0 0 1.02636 89.023 -2.262)"/><circle cx="21.094" cy="95.597" r="4.355" style="fill:#fff"/><circle cx="21.094" cy="95.597" r="4.355" style="fill:#fff" transform="translate(134.154)"/><circle cx="21.094" cy="95.597" r="4.355" style="fill:#fff" transform="translate(14.988)"/><circle cx="21.094" cy="95.597" r="4.355" style="fill:#fff" transform="translate(149.142)"/></g></svg>

<?xml version="1.0" encoding="UTF-8" standalone="no"?>
<!DOCTYPE svg PUBLIC "-//W3C//DTD SVG 1.1//EN" "http://www.w3.org/Graphics/SVG/1.1/DTD/svg11.dtd">
<svg width="100%" height="100%" viewBox="0 0 192 192" version="1.1" xmlns="http://www.w3.org/2000/svg" xmlns:xlink="http://www.w3.org/1999/xlink" xml:space="preserve" xmlns:serif="http://www.serif.com/" style="fill-rule:evenodd;clip-rule:evenodd;stroke-linejoin:round;stroke-miterlimit:2;">
    <g id="Layer1">
        <g transform="matrix(1,0,0,1,8,8)">
            <circle cx="88" cy="88" r="88" style="fill:rgb(255,131,125);"/>
        </g>
        <g transform="matrix(0.867157,0,0,0.867157,12.7084,12.6994)">
            <g transform="matrix(1,0,0,1.02636,-0.254744,-2.26238)">
                <path d="M55.807,87.777C55.807,85.298 53.741,83.285 51.196,83.285C48.652,83.285 46.586,85.298 46.586,87.777L46.586,102.916C46.586,105.396 48.652,107.409 51.196,107.409C53.741,107.409 55.807,105.396 55.807,102.916L55.807,87.777Z" style="fill:white;"/>
            </g>
            <g transform="matrix(1,0,0,2.34219,14.6716,-127.723)">
                <path d="M55.807,85.253C55.807,84.167 53.741,83.285 51.196,83.285C48.652,83.285 46.586,84.167 46.586,85.253L46.586,105.44C46.586,106.527 48.652,107.409 51.196,107.409C53.741,107.409 55.807,106.527 55.807,105.44L55.807,85.253Z" style="fill:white;"/>
            </g>
            <g transform="matrix(1,0,0,4.348,29.5979,-318.97)">
                <path d="M55.807,84.345C55.807,83.76 53.741,83.285 51.196,83.285C48.652,83.285 46.586,83.76 46.586,84.345L46.586,106.348C46.586,106.934 48.652,107.409 51.196,107.409C53.741,107.409 55.807,106.934 55.807,106.348L55.807,84.345Z" style="fill:white;"/>
            </g>
            <g transform="matrix(1,0,0,2.34219,44.5243,-127.723)">
                <path d="M55.807,85.253C55.807,84.167 53.741,83.285 51.196,83.285C48.652,83.285 46.586,84.167 46.586,85.253L46.586,105.44C46.586,106.527 48.652,107.409 51.196,107.409C53.741,107.409 55.807,106.527 55.807,105.44L55.807,85.253Z" style="fill:white;"/>
            </g>
            <g transform="matrix(1,0,0,1.02636,59.3573,-2.26238)">
                <path d="M55.807,87.777C55.807,85.298 53.741,83.285 51.196,83.285C48.652,83.285 46.586,85.298 46.586,87.777L46.586,102.916C46.586,105.396 48.652,107.409 51.196,107.409C53.741,107.409 55.807,105.396 55.807,102.916L55.807,87.777Z" style="fill:white;"/>
            </g>
            <g transform="matrix(1,0,0,2.34219,74.1904,-127.723)">
                <path d="M55.807,85.253C55.807,84.167 53.741,83.285 51.196,83.285C48.652,83.285 46.586,84.167 46.586,85.253L46.586,105.44C46.586,106.527 48.652,107.409 51.196,107.409C53.741,107.409 55.807,106.527 55.807,105.44L55.807,85.253Z" style="fill:white;"/>
            </g>
            <g transform="matrix(1,0,0,1.02636,89.0235,-2.26238)">
                <path d="M55.807,87.777C55.807,85.298 53.741,83.285 51.196,83.285C48.652,83.285 46.586,85.298 46.586,87.777L46.586,102.916C46.586,105.396 48.652,107.409 51.196,107.409C53.741,107.409 55.807,105.396 55.807,102.916L55.807,87.777Z" style="fill:white;"/>
            </g>
            <circle cx="21.094" cy="95.597" r="4.355" style="fill:white;"/>
            <g transform="matrix(1,0,0,1,134.154,0)">
                <circle cx="21.094" cy="95.597" r="4.355" style="fill:white;"/>
            </g>
            <g transform="matrix(1,0,0,1,14.9878,0)">
                <circle cx="21.094" cy="95.597" r="4.355" style="fill:white;"/>
            </g>
            <g transform="matrix(1,0,0,1,149.142,0)">
                <circle cx="21.094" cy="95.597" r="4.355" style="fill:white;"/>
            </g>
        </g>
    </g>
</svg>
